web/packages/design/src/ResourceIcon/assets/apple-light.svg

<svg width="72" height="72" viewBox="0 0 72 72" fill="none" xmlns="http://www.w3.org/2000/svg">
<g clip-path="url(#clip0_6726_30055)">
<path d="M63.0967 24.5422C60.7432 25.9831 58.7938 27.9975 57.4308 30.397C56.0679 32.7964 55.336 35.5025 55.3036 38.2618C55.3129 41.3675 56.2331 44.4021 57.95 46.99C59.667 49.5779 62.1054 51.6052 64.9632 52.821C63.8364 56.4563 62.1689 59.9014 60.0166 63.0403C56.937 67.4736 53.7168 71.9065 48.8172 71.9065C43.9177 71.9065 42.6575 69.06 37.0111 69.06C31.5047 69.06 29.5447 72 25.0648 72C20.585 72 17.4588 67.8934 13.8655 62.8537C9.11892 55.7937 6.51027 47.5141 6.35254 39.0082C6.35254 25.0089 15.4523 17.5895 24.4115 17.5895C29.1715 17.5895 33.138 20.7157 36.1246 20.7157C38.9711 20.7157 43.4044 17.4025 48.8172 17.4025C51.6003 17.3307 54.3584 17.9443 56.8485 19.1893C59.3386 20.4344 61.4843 22.2726 63.0967 24.5422ZM46.2509 11.4763C48.637 8.66943 49.9877 5.12878 50.0774 1.44584C50.0814 0.960317 50.0345 0.475716 49.9373 0C45.8386 0.400378 42.0485 2.35389 39.3443 5.45984C36.9352 8.1549 35.5336 11.601 35.3777 15.2125C35.3795 15.6517 35.4265 16.0895 35.5178 16.5191C35.8409 16.5802 36.169 16.6115 36.4978 16.6127C38.3868 16.4624 40.2254 15.9295 41.9021 15.0466C43.5787 14.1636 45.0583 12.9489 46.2509 11.4763Z" fill="black"/>
</g>
<defs>
<clipPath id="clip0_6726_30055">
<rect width="72" height="72" fill="white"/>
</clipPath>
</defs>
</svg>

<svg xmlns="http://www.w3.org/2000/svg" width="72" height="72" fill="none" viewBox="0 0 72 72"><g clip-path="url(#clip0_6726_30055)"><path fill="#000" d="M63.097 24.542a16.31 16.31 0 0 0-7.793 13.72 15.87 15.87 0 0 0 9.66 14.559 38 38 0 0 1-4.947 10.22c-3.08 4.433-6.3 8.865-11.2 8.865s-6.16-2.846-11.806-2.846c-5.506 0-7.466 2.94-11.946 2.94s-7.606-4.107-11.2-9.146a44.2 44.2 0 0 1-7.512-23.846c0-14 9.1-21.418 18.059-21.418 4.76 0 8.726 3.126 11.713 3.126 2.846 0 7.28-3.314 12.692-3.314a16.98 16.98 0 0 1 14.28 7.14M46.25 11.476a16.1 16.1 0 0 0 3.826-10.03A7 7 0 0 0 49.937 0a16.12 16.12 0 0 0-10.593 5.46 15.65 15.65 0 0 0-3.966 9.753q.003.66.14 1.306.486.092.98.094a13.98 13.98 0 0 0 9.753-5.137"/></g><defs><clipPath id="clip0_6726_30055"><path fill="#fff" d="M0 0h72v72H0z"/></clipPath></defs></svg>
